img/icones/servicos/power-icone.svg

<svg width="25" height="24" viewBox="0 0 25 24" fill="none" xmlns="http://www.w3.org/2000/svg">
<path d="M13.0036 3C12.4536 3 12.0036 3.45 12.0036 4V12C12.0036 12.55 12.4536 13 13.0036 13C13.5536 13 14.0036 12.55 14.0036 12V4C14.0036 3.45 13.5536 3 13.0036 3ZM18.1436 5.86C17.7536 6.25 17.7636 6.86 18.1336 7.25C19.2636 8.45 19.9636 10.05 20.0036 11.82C20.0936 15.65 16.9236 18.95 13.0936 18.99C9.18359 19.05 6.00359 15.9 6.00359 12C6.00359 10.16 6.71359 8.49 7.87359 7.24C8.24359 6.85 8.24359 6.24 7.86359 5.86C7.46359 5.46 6.81359 5.47 6.43359 5.88C4.98359 7.42 4.07359 9.47 4.00359 11.74C3.86359 16.62 7.83359 20.84 12.7136 20.99C17.8136 21.15 22.0036 17.06 22.0036 11.99C22.0036 9.62 21.0836 7.48 19.5836 5.88C19.2036 5.47 18.5436 5.46 18.1436 5.86Z" fill="url(#paint0_linear_523_121)"/>
<defs>
<linearGradient id="paint0_linear_523_121" x1="13.0018" y1="3.35989" x2="16.7984" y2="19.7555" gradientUnits="userSpaceOnUse">
<stop stop-color="#345EC2"/>
<stop offset="1" stop-color="#113896"/>
</linearGradient>
</defs>
</svg>

<svg width="25" height="24" fill="none" xmlns="http://www.w3.org/2000/svg"><path d="M13.004 3c-.55 0-1 .45-1 1v8c0 .55.45 1 1 1s1-.45 1-1V4c0-.55-.45-1-1-1Zm5.14 2.86a.99.99 0 0 0-.01 1.39c1.13 1.2 1.83 2.8 1.87 4.57.09 3.83-3.08 7.13-6.91 7.17A6.981 6.981 0 0 1 6.004 12c0-1.84.71-3.51 1.87-4.76.37-.39.37-1-.01-1.38a.993.993 0 0 0-1.43.02 8.92 8.92 0 0 0-2.43 5.86c-.14 4.88 3.83 9.1 8.71 9.25 5.1.16 9.29-3.93 9.29-9 0-2.37-.92-4.51-2.42-6.11-.38-.41-1.04-.42-1.44-.02Z" fill="url(#a)"/><defs><linearGradient id="a" x1="13.002" y1="3.36" x2="16.798" y2="19.756" gradientUnits="userSpaceOnUse"><stop stop-color="#345EC2"/><stop offset="1" stop-color="#113896"/></linearGradient></defs></svg>
